public/logos/ibm.svg

<svg width="20" height="20" viewBox="0 0 20 20" fill="none" xmlns="http://www.w3.org/2000/svg">
  <rect width="20" height="20" rx="4" fill="white" />
  <path fill-rule="evenodd" clip-rule="evenodd"
    d="M17 12.6V13H15.1579V12.6H17ZM12.5789 12.6V13H10.7368V12.6H12.5789ZM14.0162 12.6L13.868 13L13.7218 12.6H14.0162ZM9.88947 12.6C9.62517 12.8484 9.27657 13 8.88737 13H5.94737V12.6H9.88947ZM5.57895 12.6V13H3V12.6H5.57895ZM12.5789 11.8V12.2H10.7368V11.8H12.5789ZM14.3042 11.8L14.1608 12.2H13.5775L13.4331 11.8H14.3042ZM10.2579 11.8C10.2246 11.9422 10.1715 12.0765 10.1032 12.2H5.94737V11.8H10.2579ZM5.57895 11.8V12.2H3V11.8H5.57895ZM17 11.8V12.2H15.1579V11.8H17ZM16.2632 11V11.4H15.1579V11H16.2632ZM12.5789 11V11.4H11.4737V11H12.5789ZM14.5933 11L14.4485 11.4H13.2884L13.1425 11H14.5933ZM10.2063 11C10.2394 11.1275 10.2579 11.2615 10.2579 11.4H8.89474V11H10.2063ZM7.78947 11V11.4H6.68421V11H7.78947ZM4.84211 11V11.4H3.73684V11H4.84211ZM16.2632 10.2V10.6H15.1579V10.2H16.2632ZM12.5789 10.2V10.6H11.4737V10.2H12.5789ZM14.882 10.2L14.7379 10.6H12.9953L12.8523 10.2H14.882ZM9.75316 10.2C9.88022 10.3129 9.98964 10.4482 10.0737 10.6H6.68421V10.2H9.75316ZM4.84211 10.2V10.6H3.73684V10.2H4.84211ZM13.7652 9.4L13.8684 9.72331L13.9715 9.4H16.2632V9.8H15.1579V9.43244L15.0326 9.8H12.7005L12.5789 9.4324V9.8H11.4737V9.4H13.7652ZM4.84211 9.4V9.8H3.73684V9.4H4.84211ZM10.0737 9.4C9.98964 9.55178 9.88022 9.68705 9.75316 9.8H6.68421V9.4H10.0737ZM16.2632 8.6V9H14.0994L14.2298 8.6H16.2632ZM13.5083 8.6L13.6387 9H11.4737V8.6H13.5083ZM10.2579 8.6C10.2579 8.73847 10.2394 8.87244 10.2063 9H8.89474V8.6H10.2579ZM7.78947 8.6V9H6.68421V8.6H7.78947ZM4.84211 8.6V9H3.73684V8.6H4.84211ZM13.2532 7.8L13.3812 8.2H10.7369L10.7368 7.8H13.2532ZM17 7.8V8.2H14.3543L14.4873 7.8H17ZM10.1032 7.8C10.1715 7.92349 10.2246 8.05778 10.2579 8.2H5.94737V7.8H10.1032ZM5.57895 7.8V8.2H3V7.8H5.57895ZM12.9945 7L13.125 7.4H10.7369L10.7368 7H12.9945ZM17 7V7.4H14.6149L14.7423 7H17ZM8.88737 7C9.27374 7 9.62521 7.1516 9.88947 7.4H5.94737V7H8.88737ZM5.57895 7V7.4H3V7H5.57895Z"
    fill="black" />
</svg>

<svg xmlns="http://www.w3.org/2000/svg" fill="none" viewBox="0 0 20 20">
  <rect width="20" height="20" fill="#fff" rx="4" />
  <path fill="#000" fill-rule="evenodd"
    d="M17 12.6v.4h-1.842v-.4H17Zm-4.421 0v.4h-1.842v-.4h1.842Zm1.437 0-.148.4-.146-.4h.294Zm-4.127 0c-.264.248-.612.4-1.002.4h-2.94v-.4H9.89Zm-4.31 0v.4H3v-.4h2.579Zm7-.8v.4h-1.842v-.4h1.842Zm1.725 0-.143.4h-.583l-.145-.4h.871Zm-4.046 0a1.564 1.564 0 0 1-.155.4H5.947v-.4h4.31Zm-4.679 0v.4H3v-.4h2.579ZM17 11.8v.4h-1.842v-.4H17Zm-.737-.8v.4h-1.105V11h1.105Zm-3.684 0v.4h-1.105V11h1.105Zm2.014 0-.145.4h-1.16l-.146-.4h1.451Zm-4.387 0c.033.127.052.261.052.4H8.895V11h1.311ZM7.79 11v.4H6.684V11H7.79Zm-2.947 0v.4H3.737V11h1.105Zm11.421-.8v.4h-1.105v-.4h1.105Zm-3.684 0v.4h-1.105v-.4h1.105Zm2.303 0-.144.4h-1.743l-.143-.4h2.03Zm-5.129 0c.127.113.237.248.32.4H6.685v-.4h3.07Zm-4.91 0v.4H3.736v-.4h1.105Zm8.922-.8.103.323.104-.323h2.291v.4h-1.105v-.368l-.125.368H12.7l-.122-.368V9.8h-1.105v-.4h2.291Zm-8.923 0v.4H3.737v-.4h1.105Zm5.232 0a1.525 1.525 0 0 1-.32.4h-3.07v-.4h3.39Zm6.19-.8V9h-2.165l.13-.4h2.034Zm-2.756 0 .13.4h-2.164v-.4h2.034Zm-3.25 0c0 .138-.019.272-.052.4H8.895v-.4h1.363Zm-2.469 0V9H6.684v-.4H7.79Zm-2.947 0V9H3.737v-.4h1.105Zm8.411-.8.128.4h-2.644v-.4h2.516ZM17 7.8v.4h-2.646l.133-.4H17Zm-6.897 0c.069.123.122.258.155.4h-4.31v-.4h4.155Zm-4.524 0v.4H3v-.4h2.579Zm7.416-.8.13.4h-2.388V7h2.258ZM17 7v.4h-2.385l.127-.4H17ZM8.887 7c.387 0 .738.152 1.002.4H5.947V7h2.94ZM5.58 7v.4H3V7h2.579Z"
    clip-rule="evenodd" />
</svg>
